bots/rsm/seasonal/trans.svg

<svg width="2048" height="2048" fill="none" xmlns="http://www.w3.org/2000/svg"><path fill="#424242" d="M0 0h2048v2048H0z"/><path fill-rule="evenodd" clip-rule="evenodd" d="M354 478c-35.899 0-65 29.101-65 65v181c0 35.898 29.102 65 65 65h1339c35.9 0 65-29.102 65-65V543c0-35.899-29.1-65-65-65H354Zm1248 283c70.14 0 127-56.86 127-127s-56.86-127-127-127-127 56.86-127 127 56.86 127 127 127Z" fill="url(#a)"/><path fill-rule="evenodd" clip-rule="evenodd" d="M354 1258c-35.899 0-65 29.1-65 65v181c0 35.9 29.102 65 65 65h1339c35.9 0 65-29.1 65-65v-181c0-35.9-29.1-65-65-65H354Zm1248 283c70.14 0 127-56.86 127-127s-56.86-127-127-127-127 56.86-127 127 56.86 127 127 127Z" fill="url(#b)"/><path fill-rule="evenodd" clip-rule="evenodd" d="M1465 1179V868h228c35.9 0 65 29.102 65 65v181c0 35.9-29.1 65-65 65h-228Zm264-155c0 70.14-56.86 127-127 127s-127-56.86-127-127 56.86-127 127-127 127 56.86 127 127Z" fill="#6576CC"/><path d="M1171 1179V868h293.8v311H1171Z" fill="#D46899"/><path d="M877 1179V868h293.8v311H877Z" fill="#fff"/><path d="M583 1179V868h293.8v311H583Z" fill="#D46899"/><path d="M289 933v181c0 35.9 29.102 65 65 65h228.8V868H354c-35.898 0-65 29.102-65 65Z" fill="#6576CC"/><defs><linearGradient id="a" x1="289" y1="634" x2="1758" y2="634" gradientUnits="userSpaceOnUse"><stop stop-color="#F27878"/><stop offset="1" stop-color="#D96B6B"/></linearGradient><linearGradient id="b" x1="289" y1="1414" x2="1758" y2="1414" gradientUnits="userSpaceOnUse"><stop stop-color="#F27878"/><stop offset="1" stop-color="#D96B6B"/></linearGradient></defs></svg>

<svg width="2048" height="2048" viewBox="0 0 2048 2048" fill="none" xmlns="http://www.w3.org/2000/svg">
<rect width="2048" height="2048" fill="#424242"/>
<path fill-rule="evenodd" clip-rule="evenodd" d="M354 478C318.101 478 289 507.101 289 543V724C289 759.898 318.102 789 354 789H1693C1728.9 789 1758 759.898 1758 724V543C1758 507.101 1728.9 478 1693 478H354ZM1602 761C1672.14 761 1729 704.14 1729 634C1729 563.86 1672.14 507 1602 507C1531.86 507 1475 563.86 1475 634C1475 704.14 1531.86 761 1602 761Z" fill="url(#paint0_linear_3646_7471)"/>
<path fill-rule="evenodd" clip-rule="evenodd" d="M354 1258C318.101 1258 289 1287.1 289 1323V1504C289 1539.9 318.102 1569 354 1569H1693C1728.9 1569 1758 1539.9 1758 1504V1323C1758 1287.1 1728.9 1258 1693 1258H354ZM1602 1541C1672.14 1541 1729 1484.14 1729 1414C1729 1343.86 1672.14 1287 1602 1287C1531.86 1287 1475 1343.86 1475 1414C1475 1484.14 1531.86 1541 1602 1541Z" fill="url(#paint1_linear_3646_7471)"/>
<path fill-rule="evenodd" clip-rule="evenodd" d="M1465 1179V868H1693C1728.9 868 1758 897.102 1758 933V1114C1758 1149.9 1728.9 1179 1693 1179H1465ZM1729 1024C1729 1094.14 1672.14 1151 1602 1151C1531.86 1151 1475 1094.14 1475 1024C1475 953.86 1531.86 897 1602 897C1672.14 897 1729 953.86 1729 1024Z" fill="#6576CC"/>
<path d="M1171 1179V868H1464.8V1179H1171Z" fill="#D46899"/>
<path d="M877 1179V868H1170.8V1179H877Z" fill="white"/>
<path d="M583 1179V868H876.8V1179H583Z" fill="#D46899"/>
<path d="M289 933V1114C289 1149.9 318.102 1179 354 1179H582.8V868H354C318.102 868 289 897.102 289 933Z" fill="#6576CC"/>
<defs>
<linearGradient id="paint0_linear_3646_7471" x1="289" y1="634" x2="1758" y2="634" gradientUnits="userSpaceOnUse">
<stop stop-color="#F27878"/>
<stop offset="1" stop-color="#D96B6B"/>
</linearGradient>
<linearGradient id="paint1_linear_3646_7471" x1="289" y1="1414" x2="1758" y2="1414" gradientUnits="userSpaceOnUse">
<stop stop-color="#F27878"/>
<stop offset="1" stop-color="#D96B6B"/>
</linearGradient>
</defs>
</svg>
